Unicodia/Resources/Scripts/1900.svg

<?xml version="1.0" encoding="UTF-8" standalone="no"?>
<!-- Created with Inkscape (http://www.inkscape.org/) -->

<svg
   width="16"
   height="16"
   viewBox="0 0 16 16"
   version="1.1"
   id="svg5"
   inkscape:version="1.2.1 (9c6d41e410, 2022-07-14)"
   sodipodi:docname="1900.svg"
   inkscape:export-filename="..\0000.png"
   inkscape:export-xdpi="96"
   inkscape:export-ydpi="96"
   xmlns:inkscape="http://www.inkscape.org/namespaces/inkscape"
   xmlns:sodipodi="http://sodipodi.sourceforge.net/DTD/sodipodi-0.dtd"
   xmlns="http://www.w3.org/2000/svg"
   xmlns:svg="http://www.w3.org/2000/svg">
  <sodipodi:namedview
     id="namedview7"
     pagecolor="#ffffff"
     bordercolor="#666666"
     borderopacity="1.0"
     inkscape:pageshadow="2"
     inkscape:pageopacity="0"
     inkscape:pagecheckerboard="0"
     inkscape:document-units="px"
     showgrid="true"
     width="16mm"
     units="px"
     inkscape:zoom="32"
     inkscape:cx="2.578125"
     inkscape:cy="5.84375"
     inkscape:window-width="1680"
     inkscape:window-height="998"
     inkscape:window-x="-8"
     inkscape:window-y="-8"
     inkscape:window-maximized="1"
     inkscape:current-layer="layer1"
     showguides="true"
     inkscape:guide-bbox="true"
     inkscape:snap-bbox="true"
     inkscape:bbox-paths="true"
     inkscape:bbox-nodes="true"
     inkscape:snap-global="true"
     inkscape:showpageshadow="2"
     inkscape:deskcolor="#ffffff">
    <inkscape:grid
       type="xygrid"
       id="grid828"
       originx="0"
       originy="0" />
  </sodipodi:namedview>
  <defs
     id="defs2" />
  <g
     inkscape:label="Layer 1"
     inkscape:groupmode="layer"
     id="layer1">
    <rect
       style="opacity:1;fill:#ffff83;stroke:none;stroke-width:4.4376;stroke-linejoin:bevel;stop-color:#000000;fill-opacity:1"
       id="rect691"
       width="16"
       height="16"
       x="0"
       y="0" />
    <path
       d="M 1.0072562,14.825881 0.79271672,14.372963 6.3707443,8.2705059 H 1.793901 L 6.7283101,2.7163164 H 1.2456335 L 1.8415765,1 H 15.000001 v 12.920047 l -1.78783,0.810482 q -1.501776,-1.501777 -4.7437071,-1.501777 -1.9546932,0 -3.8497923,0.512512 -1.8950992,0.512512 -3.6114154,1.084617 z M 13.092983,12.608971 V 2.7163164 H 8.3015994 L 4.3683754,7.0309447 H 9.0405696 L 3.9631342,12.585135 q 2.0521158,-1.072698 4.7198694,-1.072698 2.7940434,0 4.4099794,1.096534 z"
       id="path728"
       style="fill:#f57900;stroke-width:1" />
  </g>
</svg>

<svg height="16" viewBox="0 0 16 16" width="16" xmlns="http://www.w3.org/2000/svg"><path d="m0 0h16v16h-16z" fill="#ffff83"/><path d="m1.01 14.83-.22-.46 5.58-6.1h-4.58l4.94-5.55h-5.48l.59-1.72h13.16v12.92l-1.79.81q-1.5-1.5-4.74-1.5-1.95 0-3.85.51-1.9.51-3.61 1.08zm12.08-2.22v-9.89h-4.79l-3.93 4.31h4.67l-5.08 5.56q2.05-1.07 4.72-1.07 2.79 0 4.41 1.1z" fill="#f57900"/></svg>
